X: 9
T: Paddy Ryan's Dream
R: reel
M: 4/4
L: 1/8
K: Amin
BcB|:AE{G}E{D}E cA{^c}BG|EGdc BcdB|A2 {B}AE ABcd|cA{^c}BG AB=cB|
AE{G}E{D}E c2{B}AG|EGdc BcdB|c2 {B}AE ABcd|1 cA{^c}BG AB=cB:|2 cA{^c}BG A4||
|:Aa{b}a^g aecA|Gg{g}g^f {a}gdBG|Aa{b}a^g ae(3fed|edcB cABG|
Aa{b}a^g aecA|Gg{a}g^f gdBG|AcBd cedf|edcB cAA2:|


Tune 79	Setting 79

